static/img/kroki/5c92618b2413fd4a2d50895811b75f20.svg

<?xml version="1.0" encoding="us-ascii" standalone="no"?><svg xmlns="http://www.w3.org/2000/svg" xmlns:xlink="http://www.w3.org/1999/xlink" contentStyleType="text/css" height="374px" preserveAspectRatio="none" style="width:333px;height:374px;" version="1.1" viewBox="0 0 333 374" width="333px" zoomAndPan="magnify"><defs/><g><!--class aws_ec2_elastic_ip--><g id="elem_aws_ec2_elastic_ip"><rect codeLine="23" fill="#3D176E" height="39.7891" id="aws_ec2_elastic_ip" rx="2.5" ry="2.5" style="stroke:#000D19;stroke-width:0.5;" width="199" x="73" y="328.58"/><ellipse cx="88" cy="348.4745" fill="#ADD1B2" rx="11" ry="11" style="stroke:#181818;stroke-width:1.0;"/><path d="M90.9688,354.1152 Q90.3906,354.412 89.75,354.5527 Q89.1094,354.7089 88.4063,354.7089 Q85.9063,354.7089 84.5781,353.0683 Q83.2656,351.412 83.2656,348.287 Q83.2656,345.162 84.5781,343.5058 Q85.9063,341.8495 88.4063,341.8495 Q89.1094,341.8495 89.75,342.0058 Q90.4063,342.162 90.9688,342.4589 L90.9688,345.1777 Q90.3438,344.5995 89.75,344.3339 Q89.1563,344.0527 88.5313,344.0527 Q87.1875,344.0527 86.5,345.1308 Q85.8125,346.1933 85.8125,348.287 Q85.8125,350.3808 86.5,351.4589 Q87.1875,352.5214 88.5313,352.5214 Q89.1563,352.5214 89.75,352.2558 Q90.3438,351.9745 90.9688,351.3964 L90.9688,354.1152 Z " fill="#000000"/><text fill="#D9B8FF" font-family="Helvetica" font-size="17" lengthAdjust="spacing" textLength="157" x="107" y="354.3598">aws_ec2_elastic_ip</text></g><!--class aws_resource--><g id="elem_aws_resource"><rect codeLine="26" fill="#3D176E" height="39.7891" id="aws_resource" rx="2.5" ry="2.5" style="stroke:#000D19;stroke-width:0.5;" width="155" x="7" y="167.79"/><ellipse cx="22" cy="187.6845" fill="#ADD1B2" rx="11" ry="11" style="stroke:#181818;stroke-width:1.0;"/><path d="M24.9688,193.3252 Q24.3906,193.622 23.75,193.7627 Q23.1094,193.9189 22.4063,193.9189 Q19.9063,193.9189 18.5781,192.2783 Q17.2656,190.622 17.2656,187.497 Q17.2656,184.372 18.5781,182.7158 Q19.9063,181.0595 22.4063,181.0595 Q23.1094,181.0595 23.75,181.2158 Q24.4063,181.372 24.9688,181.6689 L24.9688,184.3877 Q24.3438,183.8095 23.75,183.5439 Q23.1563,183.2627 22.5313,183.2627 Q21.1875,183.2627 20.5,184.3408 Q19.8125,185.4033 19.8125,187.497 Q19.8125,189.5908 20.5,190.6689 Q21.1875,191.7314 22.5313,191.7314 Q23.1563,191.7314 23.75,191.4658 Q24.3438,191.1845 24.9688,190.6064 L24.9688,193.3252 Z " fill="#000000"/><text fill="#D9B8FF" font-family="Helvetica" font-size="17" lengthAdjust="spacing" textLength="113" x="41" y="193.5698">aws_resource</text></g><!--class ip_address--><g id="elem_ip_address"><rect codeLine="29" fill="#3D176E" height="39.7891" id="ip_address" rx="2.5" ry="2.5" style="stroke:#000D19;stroke-width:0.5;" width="129" x="197" y="167.79"/><ellipse cx="212" cy="187.6845" fill="#ADD1B2" rx="11" ry="11" style="stroke:#181818;stroke-width:1.0;"/><path d="M214.9688,193.3252 Q214.3906,193.622 213.75,193.7627 Q213.1094,193.9189 212.4063,193.9189 Q209.9063,193.9189 208.5781,192.2783 Q207.2656,190.622 207.2656,187.497 Q207.2656,184.372 208.5781,182.7158 Q209.9063,181.0595 212.4063,181.0595 Q213.1094,181.0595 213.75,181.2158 Q214.4063,181.372 214.9688,181.6689 L214.9688,184.3877 Q214.3438,183.8095 213.75,183.5439 Q213.1563,183.2627 212.5313,183.2627 Q211.1875,183.2627 210.5,184.3408 Q209.8125,185.4033 209.8125,187.497 Q209.8125,189.5908 210.5,190.6689 Q211.1875,191.7314 212.5313,191.7314 Q213.1563,191.7314 213.75,191.4658 Q214.3438,191.1845 214.9688,190.6064 L214.9688,193.3252 Z " fill="#000000"/><text fill="#D9B8FF" font-family="Helvetica" font-size="17" lengthAdjust="spacing" textLength="87" x="231" y="193.5698">ip_address</text></g><!--class resource--><g id="elem_resource"><rect codeLine="32" fill="#3D176E" height="39.7891" id="resource" rx="2.5" ry="2.5" style="stroke:#000D19;stroke-width:0.5;" width="113" x="116" y="7"/><ellipse cx="131" cy="26.8945" fill="#ADD1B2" rx="11" ry="11" style="stroke:#181818;stroke-width:1.0;"/><path d="M133.9688,32.5352 Q133.3906,32.832 132.75,32.9727 Q132.1094,33.1289 131.4063,33.1289 Q128.9063,33.1289 127.5781,31.4883 Q126.2656,29.832 126.2656,26.707 Q126.2656,23.582 127.5781,21.9258 Q128.9063,20.2695 131.4063,20.2695 Q132.1094,20.2695 132.75,20.4258 Q133.4063,20.582 133.9688,20.8789 L133.9688,23.5977 Q133.3438,23.0195 132.75,22.7539 Q132.1563,22.4727 131.5313,22.4727 Q130.1875,22.4727 129.5,23.5508 Q128.8125,24.6133 128.8125,26.707 Q128.8125,28.8008 129.5,29.8789 Q130.1875,30.9414 131.5313,30.9414 Q132.1563,30.9414 132.75,30.6758 Q133.3438,30.3945 133.9688,29.8164 L133.9688,32.5352 Z " fill="#000000"/><text fill="#D9B8FF" font-family="Helvetica" font-size="17" lengthAdjust="spacing" textLength="71" x="150" y="32.7798">resource</text></g><!--reverse link aws_resource to aws_ec2_elastic_ip--><g id="link_aws_resource_aws_ec2_elastic_ip"><path codeLine="35" d="M103.8376,223.5826 C120.7576,254.1026 144.91,297.69 161.85,328.25 " fill="none" id="aws_resource-backto-aws_ec2_elastic_ip" style="stroke:#FFAF37;stroke-width:2.0;"/><polygon fill="none" points="95.11,207.84,98.59,226.4918,109.0851,220.6734,95.11,207.84" style="stroke:#FFAF37;stroke-width:2.0;"/></g><!--reverse link ip_address to aws_ec2_elastic_ip--><g id="link_ip_address_aws_ec2_elastic_ip"><path codeLine="36" d="M241.9617,223.5432 C224.8617,254.0632 200.4,297.69 183.27,328.25 " fill="none" id="ip_address-backto-aws_ec2_elastic_ip" style="stroke:#FFAF37;stroke-width:2.0;"/><polygon fill="none" points="250.76,207.84,236.7273,220.6104,247.1961,226.4759,250.76,207.84" style="stroke:#FFAF37;stroke-width:2.0;"/></g><!--reverse link resource to aws_resource--><g id="link_resource_aws_resource"><path codeLine="37" d="M153.1624,62.7926 C136.2424,93.3126 112.09,136.9 95.15,167.46 " fill="none" id="resource-backto-aws_resource" style="stroke:#FFAF37;stroke-width:2.0;"/><polygon fill="none" points="161.89,47.05,147.9149,59.8834,158.41,65.7018,161.89,47.05" style="stroke:#FFAF37;stroke-width:2.0;"/></g><!--reverse link resource to ip_address--><g id="link_resource_ip_address"><path codeLine="38" d="M192.0383,62.7532 C209.1383,93.2732 233.6,136.9 250.73,167.46 " fill="none" id="resource-backto-ip_address" style="stroke:#FFAF37;stroke-width:2.0;"/><polygon fill="none" points="183.24,47.05,186.8039,65.6859,197.2727,59.8204,183.24,47.05" style="stroke:#FFAF37;stroke-width:2.0;"/></g><!--SRC=[XP9BRuCm48Jl_XMMSaQ2H2r1wYL5gjfBL3Mz8mUlWmNOQ6sAqiT_BpHDQrx9qJEVPsSjPv83XRAoHrf2kGSqnEHILGnPIJU8kebreP4kX61Y5GxD1wtiLM3BIg2FKBo1bIaR4g-PJ7C5nj2bOzspD3-WhXK_nLjaohGMAEjGSS6CsLYBSbzRSChmQByMOaWEGnSh7eItCC8qSi1VnFTz7aH3vEgeYtl_4Jlv3ZHm7sshBOngZaRyK1TRTeHJShJesP_j-Cmub-f0RnpjvTG95M1FtsMCwwQZ1IkCEyPOGD3sM44ysWgYDHVX9Fmq1vEqUphA6fD0kaoWFRMz4rdH3qA-71V1w1fJS7LP9UrIs7qrH-sJlRjtdvxdJGmZJj8iCv5obeRUVnpv1W00]--></g></svg>

<svg xmlns="http://www.w3.org/2000/svg" width="333" height="374" viewBox="0 0 333 374"><rect width="199" height="39.789" x="73" y="328.58" fill="#3D176E" rx="2.5" ry="2.5" style="stroke:#000d19;stroke-width:.5"/><circle cx="88" cy="348.474" r="11" fill="#ADD1B2" style="stroke:#181818;stroke-width:1"/><path d="M90.969 354.115q-.578.297-1.219.438-.64.156-1.344.156-2.5 0-3.828-1.64-1.312-1.657-1.312-4.782t1.312-4.781q1.328-1.656 3.828-1.656.703 0 1.344.156.656.156 1.219.453v2.719q-.625-.579-1.219-.844-.594-.281-1.219-.281-1.344 0-2.031 1.078-.687 1.062-.687 3.156t.687 3.172q.688 1.062 2.031 1.062.625 0 1.219-.265.594-.281 1.219-.86z"/><text x="107" y="354.36" fill="#D9B8FF" font-family="Helvetica" font-size="17" textLength="157">aws_ec2_elastic_ip</text><rect width="155" height="39.789" x="7" y="167.79" fill="#3D176E" rx="2.5" ry="2.5" style="stroke:#000d19;stroke-width:.5"/><circle cx="22" cy="187.685" r="11" fill="#ADD1B2" style="stroke:#181818;stroke-width:1"/><path d="M24.969 193.325q-.578.297-1.219.438-.64.156-1.344.156-2.5 0-3.828-1.64-1.312-1.657-1.312-4.782t1.312-4.781q1.328-1.656 3.828-1.656.703 0 1.344.156.656.156 1.219.453v2.719q-.625-.578-1.219-.844-.594-.281-1.219-.281-1.343 0-2.031 1.078-.687 1.062-.687 3.156t.687 3.172q.688 1.062 2.031 1.062.625 0 1.219-.265.594-.281 1.219-.86z"/><text x="41" y="193.57" fill="#D9B8FF" font-family="Helvetica" font-size="17" textLength="113">aws_resource</text><rect width="129" height="39.789" x="197" y="167.79" fill="#3D176E" rx="2.5" ry="2.5" style="stroke:#000d19;stroke-width:.5"/><circle cx="212" cy="187.685" r="11" fill="#ADD1B2" style="stroke:#181818;stroke-width:1"/><path d="M214.969 193.325q-.578.297-1.219.438-.64.156-1.344.156-2.5 0-3.828-1.64-1.312-1.657-1.312-4.782t1.312-4.781q1.328-1.656 3.828-1.656.703 0 1.344.156.656.156 1.219.453v2.719q-.625-.578-1.219-.844-.594-.281-1.219-.281-1.344 0-2.031 1.078-.687 1.062-.687 3.156t.687 3.172q.688 1.062 2.031 1.062.625 0 1.219-.265.594-.281 1.219-.86z"/><text x="231" y="193.57" fill="#D9B8FF" font-family="Helvetica" font-size="17" textLength="87">ip_address</text><rect width="113" height="39.789" x="116" y="7" fill="#3D176E" rx="2.5" ry="2.5" style="stroke:#000d19;stroke-width:.5"/><circle cx="131" cy="26.895" r="11" fill="#ADD1B2" style="stroke:#181818;stroke-width:1"/><path d="M133.969 32.535q-.578.297-1.219.438-.64.156-1.344.156-2.5 0-3.828-1.64-1.312-1.657-1.312-4.782t1.312-4.781q1.328-1.656 3.828-1.656.703 0 1.344.156.656.156 1.219.453v2.719q-.625-.578-1.219-.844-.594-.281-1.219-.281-1.344 0-2.031 1.078-.687 1.062-.687 3.156t.687 3.172q.688 1.062 2.031 1.062.625 0 1.219-.265.594-.281 1.219-.86z"/><text x="150" y="32.78" fill="#D9B8FF" font-family="Helvetica" font-size="17" textLength="71">resource</text><path fill="none" d="M103.838 223.583c16.92 30.52 41.072 74.107 58.012 104.667M95.11 207.84l3.48 18.652 10.495-5.819zm146.852 15.703c-17.1 30.52-41.562 74.147-58.692 104.707m67.49-120.41-14.033 12.77 10.47 5.866zM153.162 62.793C136.242 93.313 112.09 136.9 95.15 167.46m66.74-120.41-13.975 12.833 10.495 5.819z" style="stroke:#ffaf37;stroke-width:2"/><g fill="none"><path d="M192.038 62.753c17.1 30.52 41.562 74.147 58.692 104.707" style="stroke:#ffaf37;stroke-width:2"/><path d="m183.24 47.05 3.564 18.636 10.469-5.866z" style="stroke:#ffaf37;stroke-width:2"/></g></svg>
